!!!OTL: Der Irrtum (259a), S. 554
!!!id: T0449
**kern
*clefG2
*k[]
*G:
{8g
8a
=1
4b
4b
4b
8a
8b
=2
8cc
8a
8a
8a}
4r
=3
{8a
8b
=4
4cc
4cc
4cc
4dd
=5
8b
8b
8b
8b}
4r
=6
{8g
8b
=7
4dd
4dd
8dd
8ee
4dd}
=8
{8dd
8dd
8dd
8dd
4g}
==
*-
!!!minrhy: 8
!!!meters: 4/4 ]  ZZ[4
!!!cut: Der Irrtum (259a), S. 554
!!!reg: Luxemburg
!!!trd: Singendes Volk, Esch-Alzette, 1937 posth.
!!!rhy1: XX  X_X_X_XX  XXXX0_
!!!rhy2: XX  X_X_X_X_  XXXX0_
!!!key: T0449  08  G 4/4 ]  ZZ[4
!!!mod: SECHSTONSKALA DUR ?]  AMBITUS[6
!!!kad: 2351
!!!akz: 334_443_55_1_
!!!fot: 'a__b__c__d__
!!!for: 'a__b__c__d__
!!!fok: '^a_^a_/__\__
!! PHRAS[AUFTAKTIG]
!!!fkt: Scherz-, Spiel-, Spottlied
!!!bem1: Heffingen, hhh Nikolaus Ewen, 9.9.1934,
!!!bem2: "Lied des alten Lorang";
!!!bem3: (259b)- Consdorf, Liederheft, 1848-51
!! THILL; Mathias
!! PR[28] 2K[0] 2G[0] 3K[19] 3G[0] 4A[9] 4Ü[0] 5A[2] 6K[0] 6G[0]
!! 7K[0] 7G[0] 8A[0] MEHR[0] SI[30] ABS[47] SR[0] SP[30]
!! ST[20] 2k[9] 2g[17] 3k[13] 3g[0] 4d[0] 4ü[0] 5d[0] 6k[4] 6g[0]
!! 7k[0] 7g[0] 8d[0] mehr[0] si[43] dm[-13] sr[26] sp[17]
!! 1F[46] 2F[54] 3F[0] 4F[0] LF[0] 2P[0] 3P[0] 4P[0] TRI[0] DF[2] AB[52]
!! TF[0] U3K[0] U3[0] U4[0] U4Ü[0] U5[0] U6K[0] U6[0] U7K[0] U7[0]
!! N1[0] N2K[0] N2[13] N3K[0] N3[23] N4[19] N4Ü[0] N5[38] N6K[0] N6[4]
!!!n7k: 0] N7[0] O1[4] O2K[0] O2[0] O3K[0] O3[0] HÖ[0
